X:1
T:6 Songs, Op.6
T:Juchhe!
T:4. Juchhe!
T:Johannes Brahms
T:Robert Reinick
T:6 Songs, Op.6
T:OpenScore (CC0)
T:OpenScore (CC0)
T:OpenScore (CC0)
T:OpenScore (CC0)
C:Johannes Brahms
Z:Robert Reinick
Z:OpenScore (CC0)
%%score ( 1 2 ) { ( 3 5 ) | ( 4 6 ) }
L:1/8
Q:1/4=110
M:6/8
K:Eb
V:1 treble nm="Singstimme\nVoice"
V:2 treble 
V:3 treble nm="Pianoforte"
V:5 treble 
V:4 bass 
V:6 bass 
V:1
"^Con moto" z | z6 | z6 | z2 z z2!p! G |: B3 =A2 B | c3 =A2 B | g2 e B2 z | z6 | z2 z z2 B | %9
w: |||1. Wie|ist doch die|Er- de so|schön, so   schön!||Das|
w: ||||ist doch die|Er- de so|schön, so   schön!||Das|
w: |||||||||
 B3 A2 G | A2 F D2 z | z2 z z2 A | A3 G2 F | B2 G E2 z | z6 | z2 z z2!p! A | A G F (FG) A | %17
w: wis- sen die|Vö- ge- lein,|das|wis- sen die|Vö- ge- lein;||sie|he- ben ihr lei- cht Ge-|
w: wis- sen die|Flüss und  Seen,|das|wis- sen die|Flüss und  Seen;||sie|ma- len im kla- * ren|
w: ||||||||
 G F z z2 A | A G F (FG) A | G F z z2"^cresc." B | B A G G A B | A G z z2 _c | _c A z z2 _c | %23
w: fie- der, sie|he- ben ihr leicht _ Ge-|fie- der, und||||
w: Spie- gel die|Gär- ten und Städt _ und|Hü- gel, sie|sin- gen so fröh- li- che|Lie- der und|sin- gen, und|
w: |||ma- len im kla- * ren|Spie- gel die|Gär- ten und|
 _c A z z2[Q:1/4=110]"^rit." z | z2 z z .d!f! .d | %25
w: ||
w: sin- gen|in den|
w: Hü- gel|und die|
"^ten." a2[Q:1/4=100][Q:1/4=95]"^T" g[Q:1/4=90]"^T" (.f[Q:1/4=85]"^T" .e[Q:1/4=80]"^T" .c) | %26
w: |
w: * en Him- mel hin-|
w: |
[Q:1/4=75]"^T" (.B .=A .B)[Q:1/4=100]"^a tempo" (.c .A[Q:1/4=110]"^T" .F) | %27
w: |
w: ein, in den Him- mel hin-|
w: |
[Q:1/4=120]"^T" f2!f! z z2 z | z2 z z B B |!f! f3- (fd) B | (F3 G2) =A | B2 z z2 z | z6 | z6 | z6 | %35
w: |in den|blau- * * en|Him- mel hin-|ein.||||
w: ein,|und die|Wol- * ken,  die|drü- * ber|gehn!||||
w: gehn,||||||||
 z6 | z6 | z2 z z2 B :|!p! B3 =A2 B | (c3 =A2) B | g2 e B2 z | z6 | z2 z z c B | B3 A2 G | %44
w: ||2. Wie|Sän- ger und|Ma- * ler|wis- sen es,||und es|wis- sens viel|
w: ||3. Und|||||||
w: |||||||||
 A2 F D2 z | z2 z z A A | A3 G2 F | B2 G E2 z | z6 | z2 z z2 A | (AG) F (FG) A | G F z z2 A | %52
w: and- re Leut!|und es|wis- sens viel|and- re Leut!||Und|wers _ nicht malt, _ der|singt es, und|
w: ||||||||
w: ||||||||
 (A_G) F (FG) A | _G F z z2 =A | =A ^G ^F (FG) A | (^G^F) z z2 z | z2 z z2!f! ^f | %57
w: wers _ nicht singt, _ dem|klingt es im|Her- zen vor lau- * ter|Freud, _|im|
w: |||||
w: |||||
"^sostenuto ma"[Q:1/4=110]"^T" =g3 g2 f |[Q:1/4=120]"^a tempo" (f2 e) (e2 d) | (d2 c) z2"^dim." B | %60
w: Her- zen vor|lau- * ter _|Freud, _ vor|
w: |||
w: |||
 (B2 A) (G2 F) | (F2 E) z2 F | F2 E z2 F | F2 E z2!p! E |"^cresc." (B3 =A3 | _A3) G3 | F6- | %67
w: lau- * ter _|Freud, _ dem|klingt es im|Her- zen vor|lau- *|* ter,|lau-|
w: |||||||
w: |||||||
 F3 G3 | E3- E2 z | z6 | z6 | z6 | z6 | !fermata!z6 |] %74
w: * ter|Freud!  _||||||
w: |||||||
w: |||||||
V:2
 x | x6 | x6 | x6 |: x6 | x6 | x6 | x6 | x6 | x6 | x6 | x6 | x6 | x6 | x6 | x6 | x6 | x6 | x6 | %19
w: |||||||||||||||||||
w: |||||||||||||||||||
w: |||||||||||||||||||
 x6 | x3 (GA) x | x6 | x6 | x6 | x6 | (.a"^T""^molto rit." .g .g) (fe) c | (B=A) B (cA) F | x6 | %28
w: |||||||||
w: ||||||blau- * en * * *|||
w: ||||||Wol- ken, die drü- * ber|gehn, _ die drü- * ber||
 x6 | x3 f d x | x6 | x6 | x6 | x6 | x6 | x6 | x6 | x6 :| x6 | x6 | x6 | x6 | x6 | x6 | x6 | x6 | %46
w: ||||||||||||||||||
w: ||||||||||||||||||
w: ||||||||||||||||||
 x6 | x6 | x6 | x6 | x6 | x6 | x6 | x6 | x6 | x6 | x6 | x6 | x6 | x6 | x6 | x6 | x6 | x6 | x6 | %65
w: |||||||||||||||||||
w: |||||||||||||||||||
w: |||||||||||||||||||
 x6 | x6 | x6 | x6 | x6 | x6 | x6 | x6 | x6 |] %74
w: |||||||||
w: |||||||||
w: |||||||||
V:3
!p! (G, | !>!B,2 E G) z (B, | !>!E2 G B) z (E | !>!G2!pp! B e2 g) |: %4
!pp! .[Beb].[Beb].[Beb] .[=Ae=a].[Aea].[Beb] | .[cec'].[cec'].[cec'] .[=Ae=a].[Aea].[Beb] | %6
 [gbg'][gbg'][gbe'] [gb][gb]!pp![gb] | .[gb].[gb].[gb] .[gb].[gb].[gb] | %8
 [gb][gb][gb] [gb][gb][gb] | [Bgb][Bgb][Bgb] [Bfa][Bfa][Beg] | [Bfa][Bfa][Bfa] [Bdf][Bdf][Bdf] | %11
 [Bdf][Bdf][Bdf] [Bdf][Bdf][Bdf] | [Bfa][Bfa][Bfa] [Beg][Beg][Bdf] | %13
 [Bgb][Bgb][Bgb] [Beg][Beg][Beg] | [Bdf][Bdf][Bdf] [Beg][Beg][Beg] | [Bdf] z B !>!B3- | B6- | %17
 B2 B !>!B3- | B6- | B2 c !>!c3- | c6- | c2 _d !>!d3- | d2 _d d3- | d2 =d d2 .[Fd] | %24
!<(! ([Fd]=B) [Ff] ([Ff][=Bd])!<)!!f! .[fa] |!f!"_molto rit." (a2 g) (.f.e.c) | %26
 (.B.=A.B) (.c.A.F) | [Bf]2!f! .[cb] ([cb]g) .[cb] | ([cb]g) .[cb] ([cb]g) .[cb] | [FBf]6 | %30
 [F=Af]6 | [FB]2!f! (=A/B/ c/d/e/f/g/=a/ | .b).b.b .b.b.b | [=ab][ab][ab] [ab][ab][ab] | %34
 [_ab][ab][ab]"_dim." [fb][fb][fb] | [db][db][db] [cb][cb][cb] | [Bb][Bb][Bb] [eab][eab][eab] | %37
 [dab][dab][dab] [dab][dab][Bb] :|!pp! .[Beb].[Beb].[Beb] .[=Ae=a].[Aea].[Beb] | %39
 .[cec'].[cec'].[cec'] .[=Ae=a].[Aea].[Beb] | .[ge'g'].[ge'g'].[gbe'] [gb][gb][gb] | %41
!pp! [gb][gb][gb] [gb][gb][gb] | .[gb].[gb].[gb] [gb][gb][gb] | [Bgb][Bgb][Bgb] [Bfa][Bfa][Beg] | %44
 [Bfa][Bfa][Bfa] [Bdf][Bdf][Bdf] | [Bdf][Bdf][Bdf] [Bdf][Bdf][Bdf] | %46
 [Bfa][Bfa][Bfa] [Beg][Beg][Bdf] | [Bgb][Bgb][Bgb] [Beg][Beg][Beg] | %48
 [Bdf][Bdf][Bdf] [Beg][Beg][Beg] | [Bdf] z B !>!B3- | B6- | B2 B"_cresc." !>!B3- | B6- | %53
 B2 =B !>!B3- | =B6- | B2 =B B2 [_E=c] |!<(! ([Ec]=A) .[Ee] ([Ee][Ac])!<)!!f! [Ae^f] | %57
 [Beg] z [Geg]- [Geg]2 [Gdf]- | [Gdf]2 [Gce]- [Gce]2 [F=Bd]- | %59
 [FBd]2 [EGc]- [EGc]2"_dim." [_DG_B]- | [DGB]2 [_DFA] [DEG]2 [DF] | %61
 (!>![B,-_D-F]2 [B,DE]) z2 !>![B,DF]- | ([B,-_D-F]2 [B,DE]) z2 [B,DF]- | %63
 ([B,-D-F]2 [B,DE]) z2!p! [CE] |"_cresc." ([B,EB]3 [CE=A]3 | [_CE_A]3 [B,EG]3) | [CEF-]6 | %67
!>(! F3 G3!>)! |!p! [G,B,E]3- [G,B,E] z (E, | G,2 B, E) z!<(! (G, | B,2 E G2 B-)!<)! |!f! [GBeg]6 | %72
!f! !>![ceac']6 |!f! !>!!fermata![Begb]6 |] %74
V:4
 (G,, | !>!B,,2 E, G,) z (B,, | !>!E,2 G, B,) z (E, | !>!G,2 B,[K:treble] E2 G) |: %4
"^leggiero e staccato" .[EG].[EG].[EG] .[E^F].[EF].[EG] | .[EA].[EA].[EA] .[E^F].[EF].[EG] | %6
 .[EBe].[EBe].[EBe] [EBe] z[K:bass]"_leggiero" B, | .B,.=A,.B, .C.A,.B, | .G.E.B, .G,.E,.B,, | %9
 !>![E,,B,,]6- | [E,,B,,]3- [E,,B,,]2 B, | .B,.A,.G, .A,.F,.D, | !>![E,,B,,]6- | %13
 [E,,B,,]3- [E,,B,,]2 .G, | .A,.G,.F, .B,.G,.E, | B,, z B, B,2 [F,A,] | %16
 .[F,A,].[E,G,].[D,F,] .[D,F,].[E,G,].[F,A,] | ([E,G,][D,F,]) z z2 [F,A,] | %18
 .[F,A,].[E,G,].[D,F,] .[D,F,].[E,G,].[F,A,] | ([E,G,][D,F,]) z z2 [G,B,] | %20
 .[G,B,].[F,A,].[=E,G,] .[E,G,].[F,A,].[G,B,] | ([F,A,][=E,G,]) z z2 [A,_C] | %22
 ([A,_C][F,A,]) z z2 [A,_C] | ([A,_C][F,A,]) z z2"^rit." .[=B,,A,] | %24
 ([=B,,A,][D,F,]) .[A,,A,] ([A,,A,][D,F,]) .[D,,=B,,] |"^ten." [D,,=B,,]3 [E,,C,]3 | %26
 [F,,D,]3 [E,F,=A,C]3 | [D,F,B,D]2 [=E,G,B,C] [E,G,B,C]2 [E,G,B,C] | %28
 [=E,G,B,C]2 [E,G,B,C] [E,G,B,C]2 [E,G,B,C] | [F,B,D]6 | [F,CE]6 | [B,D]2 z z2 z | %32
[K:treble] z2!f! (=A,/B,/ C/D/E/F/G/=A/ | .B) z (=A,/B,/ C/D/E/F/G/=A/ | .B) z z ._A z z | %35
 .F z z .E z z | .D z z .C z z | .B, z z z2 z :| [EG][EG][EG] [E^F][EF][EG] | %39
 [EA][EA][EA] [E^F][EF][EG] | [EBe][EBe][EBe] [EBe] z[K:bass] B, | .B,.=A,.B, .C.A,.B, | %42
 .G.E.B, .G,.E,.B,, | !arpeggio!!>![E,,B,,]6- | [E,,B,,]3- [E,,B,,] z .B, | .B,.A,.G, .A,.F,.D, | %46
 !>![E,,B,,]6- | [E,,B,,]3- [E,,B,,] z .G, | .A,.G,.F, .B,.G,.E, | .B,, z B,, z2 [F,A,] | %50
 .[F,A,].[E,G,].[D,F,] .[D,F,].[E,G,].[F,A,] | ([E,G,][D,F,]) z z2 [F,A,] | %52
 .[F,A,].[E,_G,].[D,F,] .[D,F,].[E,G,].[F,A,] | ([E,_G,][D,F,]) z z2 [^F,=A,] | %54
 .[^F,=A,].[=E,^G,].[^D,F,] .[D,F,].[E,G,].[F,A,] | ([=E,^G,][^D,^F,]) z z2 [=A,,_G,] | %56
 ([=A,,_G,][C,E,]) .[_G,,_G,] ([G,,G,][C,E,]) [C,,C,] | %57
"^sostenuto ma" (!>![B,,,B,,]3 !>![=B,,,=B,,]3 | !>![C,,C,]3 !>![D,,D,]3 | %59
 !>![E,,E,]3 !>![=E,,=E,]3 | !>![F,,F,]3 !>![G,,G,]2 [A,,A,]) | !>![G,,G,]3 !>![A,,A,]3 | %62
 !>![G,,G,]3 !>![A,,A,]3 | !>![G,,G,]3 !>![A,,A,]3 | (G,3 _G,3 | F,3 =G,3) | !>!=A,6 | _A,6 | %68
 E,,2 G,, B,, z E,, | G,,2 B,, E, z (G,, | B,,2 E, G,2 B,-) | [E,B,E]6 | %72
 !arpeggio!!>![A,,E,A,CE]6 | !arpeggio!!>!!fermata![E,,B,,E,G,B,E]6 |] %74
V:5
 x | x6 | x6 | x6 |: x6 | x6 | x6 | x6 | x6 | x6 | x6 | x6 | x6 | x6 | x6 | x x x z2!p! [FA] | %16
 .[FA].[EG].[DF] .[DF].[EG].[FA] | ([EG][DF]) z z2 [FA] | .[FA].[EG].[DF] .[DF].[EG].[FA] | %19
 ([EG][DF]) z z2"_cresc." [GB] | .[GB].[FA].[=EG] .[EG].[FA].[GB] | ([FA][=EG]) z z2 [A_c] | %22
 ([A_c][FA]) z z2 [A_c] | ([A_c][FA]) z z2 x | x6 | f3 G3 | F3 F3 | x6 | x6 | x6 | x6 | x6 | x6 | %33
 x6 | x6 | x6 | x6 | x6 :| x6 | x6 | x6 | x6 | x6 | x6 | x6 | x6 | x6 | x6 | x6 | x x x z2 [FA] | %50
 .[FA].[EG].[DF] .[DF].[EG].[FA] | ([EG][DF]) z z2 [FA] | .[FA].[E_G].[DF] .[DF].[EG].[FA] | %53
 ([E_G][DF]) z z2 [^F=A] | .[^F=A].[=E^G].[^DF] .[DF].[EG].[FA] | ([=E^G][^D^F]) z z2 x | x6 | x6 | %58
 x6 | x6 | x6 | x6 | x6 | x6 | x6 | x6 | x6 | [B,D]6 | x6 | x6 | x6 | x6 | x6 | x6 |] %74
V:6
 x | x6 | x6 | x3[K:treble] x3 |: x6 | x6 | x5[K:bass] x | x6 | x6 | x6 | x6 | x6 | x6 | x6 | x6 | %15
 x x B,, !>!B,,3- | B,,6- | B,,2 B,, !>!B,,3- | B,,6- | B,,2 C, !>!C,3- | C,6- | C,2 _D, !>!D,3- | %22
 D,2 _D, D,3- | D,2 =D, D,2 x | x6 | x6 | x6 | x6 | x6 | x6 | x6 | x6 |[K:treble] x6 | x6 | x6 | %35
 x6 | x6 | x6 :| x6 | x6 | x5[K:bass] x | x6 | x6 | x6 | x6 | x6 | x6 | x6 | x6 | x x x !>!B,,3- | %50
 B,,6- | B,,2 B,, !>!B,,3- | B,,6- | B,,2 =B,, !>!B,,3- | =B,,6- | B,,2 =B,, B,,2 x | x6 | x6 | %58
 x6 | x6 | x6 | x6 | x6 | x6 | B,,6- | B,,6 | B,,6- | B,,3- B,,2 (B,,, | E,,2 G,, B,,) x E,, | x6 | %70
 x6 | x6 | x6 | x6 |] %74

